src/assets/images/icons/icon-location.svg

<svg width="20" height="25" viewBox="0 0 20 25" fill="none" xmlns="http://www.w3.org/2000/svg">
<path d="M10 0C4.47143 0 0 3.9125 0 8.75C0 15.3125 10 25 10 25C10 25 20 15.3125 20 8.75C20 3.9125 15.5286 0 10 0ZM10 11.875C9.0528 11.875 8.14439 11.5458 7.47462 10.9597C6.80485 10.3737 6.42857 9.5788 6.42857 8.75C6.42857 7.9212 6.80485 7.12634 7.47462 6.54029C8.14439 5.95424 9.0528 5.625 10 5.625C10.9472 5.625 11.8556 5.95424 12.5254 6.54029C13.1952 7.12634 13.5714 7.9212 13.5714 8.75C13.5714 9.5788 13.1952 10.3737 12.5254 10.9597C11.8556 11.5458 10.9472 11.875 10 11.875Z" fill="white"/>
</svg>

<svg xmlns="http://www.w3.org/2000/svg" width="20" height="25" fill="none"><path fill="#fff" d="M10 0C4.471 0 0 3.913 0 8.75 0 15.313 10 25 10 25s10-9.688 10-16.25C20 3.912 15.529 0 10 0Zm0 11.875c-.947 0-1.856-.33-2.525-.915-.67-.586-1.046-1.381-1.046-2.21s.376-1.624 1.046-2.21c.67-.586 1.578-.915 2.525-.915.947 0 1.856.33 2.525.915.67.586 1.046 1.381 1.046 2.21s-.376 1.624-1.046 2.21c-.67.586-1.578.915-2.525.915Z"/></svg>
